X: 2010
T: Right Road
R: reel
C: Rick Gagne
N: 1987 on whistle
M: 4/4
Q: 1/8=360
K: D
(3ABc |"D"dF~F2 AF~F2 |"Bm"DF~F2 "A"A2Bc|"G"dcde dcBA|"Em"fdec "A" dcBA|
"D"dF~F2 AF~F2 | DF~F2 "A"A2Bc | "G"dcde "G"dcBA |1 "A"fdec "D"d2 :|2 "A"fdec "D"dcde ||
"Bm"f2df "A"a2ab | "D"agfg "A"a2af | "G"g2ga "Em"gfed | "A"cdBc A2Bc |
"D"dF~F2 AF~F2 | "Bm"DF~F2 "A"A2Bc | "G"dcde dcBA | "Em"fdec "D"dcde | 
"Bm"f2df "A"a2ab | "D"agfg a2af | "G"g2ga "Em"gfed | "A"cdBc ABGA | 
"D"DF~F2 AF~F2 | "G"GB~B2 "Em"e2de | "D"fa~a2 "Em"bagf | "A"fedc "D"d2 ||
